usr/share/icons/big-icons/symbolic/status/audio-input-microphone-low-symbolic.svg

<svg width="16" height="16" version="1.1" xmlns="http://www.w3.org/2000/svg">
 <g fill="#363636" stroke-linecap="round" stroke-linejoin="round" stroke-width="2" style="paint-order:stroke fill markers" aria-label="">
  <path d="m5.5 0c-0.20833 0-0.40364 0.039061-0.58594 0.11719s-0.34115 0.1849-0.47656 0.32031-0.24219 0.29427-0.32031 0.47656c-0.078127 0.18229-0.11719 0.3776-0.11719 0.58594v9c0 0.20833 0.039061 0.40364 0.11719 0.58594 0.078127 0.18229 0.1849 0.34115 0.32031 0.47656s0.29427 0.24219 0.47656 0.32031c0.18229 0.078127 0.3776 0.11719 0.58594 0.11719h4c0.20833 0 0.40364-0.03906 0.58594-0.11719 0.18229-0.07813 0.34115-0.1849 0.47656-0.32031s0.24218-0.29427 0.32031-0.47656c0.07813-0.18229 0.11719-0.3776 0.11719-0.58594v-9c0-0.20833-0.039061-0.40364-0.11719-0.58594-0.078126-0.18229-0.1849-0.34115-0.32031-0.47656s-0.29427-0.24219-0.47656-0.32031c-0.18229-0.078127-0.3776-0.11719-0.58594-0.11719zm0 1h4c0.13541 0 0.2526 0.049478 0.35156 0.14844s0.14844 0.21615 0.14844 0.35156v9c0 0.13541-0.049478 0.2526-0.14844 0.35156-0.09896 0.09896-0.21615 0.14844-0.35156 0.14844h-4c-0.13541 0-0.2526-0.049478-0.35156-0.14844-0.09896-0.098959-0.14844-0.21615-0.14844-0.35156v-9c0-0.13541 0.049478-0.2526 0.14844-0.35156s0.21615-0.14844 0.35156-0.14844zm-3.5 7v2.6133c0 1.876 1.5107 3.3867 3.3867 3.3867h1.6133v1h-2v1h5v-1h-2v-1h1.6133c1.876 0 3.3867-1.5107 3.3867-3.3867v-2.6133h-1v2.6348c0 1.3102-1.055 2.3652-2.3652 2.3652h-4.2695c-1.3102 0-2.3652-1.055-2.3652-2.3652v-2.6348z" fill="#363636"/>
 </g>
</svg>

<svg xmlns="http://www.w3.org/2000/svg" width="16" height="16">
<path fill="#fcfcfc" d="M5.5 0q-.312 0-.586.117c-.274.117-.341.185-.476.32A1.5 1.5 0 0 0 4 1.5v9q0 .313.117.586a1.5 1.5 0 0 0 .797.797Q5.188 12 5.5 12h4q.313 0 .586-.117a1.5 1.5 0 0 0 .797-.797Q11 10.812 11 10.5v-9q0-.312-.117-.586a1.5 1.5 0 0 0-.797-.797A1.5 1.5 0 0 0 9.5 0zm0 1h4q.203 0 .352.148c.149.148.148.217.148.352v9a.48.48 0 0 1-.148.352A.48.48 0 0 1 9.5 11h-4a.48.48 0 0 1-.352-.148A.48.48 0 0 1 5 10.5v-9q0-.203.148-.352C5.296 1 5.365 1 5.5 1M2 8v2.613A3.38 3.38 0 0 0 5.387 14H7v1H5v1h5v-1H8v-1h1.613A3.38 3.38 0 0 0 13 10.613V8h-1v2.635A2.36 2.36 0 0 1 9.635 13h-4.27A2.36 2.36 0 0 1 3 10.635V8z" aria-label="" style="paint-order:stroke fill markers"/>
</svg>
